public/_.svg

<svg width="184" height="199" viewBox="0 0 184 199" fill="none" xmlns="http://www.w3.org/2000/svg">
<path d="M96.48 0.199989C118.133 0.199989 135.4 3.18666 148.28 9.15999C161.347 14.9467 170.493 21.8533 175.72 29.88C180.947 37.9067 183.56 45.56 183.56 52.84C183.56 59.56 182.16 65.72 179.36 71.32C176.56 76.7333 173.2 81.4 169.28 85.32C165.547 89.0533 160.413 93.8133 153.88 99.6C145.48 106.32 139.6 112.013 136.24 116.68C133.813 120.04 132.04 122.28 130.92 123.4C129.987 124.333 128.4 124.8 126.16 124.8H60.64C59.3333 124.8 58.12 124.333 57 123.4C55.88 122.28 55.32 121.067 55.32 119.76C55.32 118.827 55.4133 118.08 55.6 117.52C57.6533 111.173 61.2 105.48 66.24 100.44C71.4667 95.4 78.0933 90.08 86.12 84.48C92.28 80 96.76 76.4533 99.56 73.84C102.36 71.04 103.76 68.24 103.76 65.44C103.76 62.64 102.827 60.2133 100.96 58.16C99.0933 56.1067 95.92 55.08 91.44 55.08C86.5867 55.08 83.1333 55.92 81.08 57.6C79.2133 59.0933 77.5333 61.4267 76.04 64.6C74.7333 67.2133 73.3333 69.1733 71.84 70.48C70.5333 71.7867 68.2933 72.44 65.12 72.44H7.44C5.38667 72.44 3.70667 71.6 2.4 69.92C1.09333 68.24 0.440001 66.28 0.440001 64.04V63.76C0.440001 53.68 3.89333 43.7867 10.8 34.08C17.7067 24.1867 28.3467 16.0667 42.72 9.71998C57.28 3.37332 75.2 0.199989 96.48 0.199989ZM121.68 136.56C123.733 136.56 125.507 137.307 127 138.8C128.493 140.293 129.24 142.067 129.24 144.12V191.44C129.24 193.493 128.493 195.267 127 196.76C125.507 198.253 123.733 199 121.68 199H64.84C62.7867 199 61.0133 198.253 59.52 196.76C58.0267 195.267 57.28 193.493 57.28 191.44V144.12C57.28 142.067 58.0267 140.293 59.52 138.8C61.0133 137.307 62.7867 136.56 64.84 136.56H121.68Z" fill="#0C2D70"/>
</svg>

<svg xmlns="http://www.w3.org/2000/svg" width="184" height="199" fill="none"><path fill="#0C2D70" d="M96.48.2q32.48 0 51.8 8.96 19.6 8.68 27.44 20.72t7.84 22.96q0 10.08-4.2 18.48-4.2 8.12-10.08 14-5.6 5.6-15.4 14.28-12.6 10.08-17.64 17.08-3.64 5.04-5.32 6.72-1.4 1.4-4.76 1.4H60.64q-1.96 0-3.64-1.4-1.68-1.68-1.68-3.64 0-1.4.28-2.24 3.08-9.52 10.64-17.08 7.84-7.56 19.88-15.96 9.24-6.72 13.44-10.64 4.2-4.2 4.2-8.4t-2.8-7.28-9.52-3.08q-7.28 0-10.36 2.52-2.8 2.24-5.04 7-1.96 3.92-4.2 5.88-1.96 1.96-6.72 1.96H7.44q-3.08 0-5.04-2.52T.44 64.04v-.28q0-15.12 10.36-29.68Q21.16 19.24 42.72 9.72 64.56.2 96.48.2m25.2 136.36q3.08 0 5.32 2.24t2.24 5.32v47.32q0 3.08-2.24 5.32t-5.32 2.24H64.84q-3.08 0-5.32-2.24t-2.24-5.32v-47.32q0-3.08 2.24-5.32t5.32-2.24z"/></svg>
